packages/tokens/icons/lightning/size32Px.svg

<svg viewBox="0 0 32 32" fill="none" xmlns="http://www.w3.org/2000/svg" width="1em" height="1em"><path d="M6.50164 16.9558L15.661 2.83507C16.203 1.99952 17.5 2.38333 17.5 3.37926V12.5C17.5 13.0523 17.9477 13.5 18.5 13.5L24.6625 13.5C25.4548 13.5 25.9325 14.3776 25.5022 15.043L16.3763 29.1551C15.8351 29.992 14.5366 29.6087 14.5366 28.6121L14.5366 19.5C14.5366 18.9477 14.0889 18.5 13.5366 18.5H7.3406C6.54759 18.5 6.07009 17.6211 6.50164 16.9558Z" stroke="currentColor" stroke-linecap="round" stroke-linejoin="round"/></svg>

<svg xmlns="http://www.w3.org/2000/svg" fill="none" viewBox="0 0 32 32" width="1em" height="1em"><path stroke="currentColor" stroke-linecap="round" stroke-linejoin="round" d="m6.502 16.956 9.159-14.12c.542-.836 1.839-.453 1.839.543V12.5a1 1 0 0 0 1 1h6.163a1 1 0 0 1 .84 1.543l-9.127 14.112c-.54.837-1.84.454-1.84-.543V19.5a1 1 0 0 0-1-1H7.342a1 1 0 0 1-.84-1.544Z"/></svg>
